src/assets/svg/icons/fa/nuevos/classic/thin/rv classic thin.svg

<svg xmlns="http://www.w3.org/2000/svg" viewBox="0 0 640 512"><!--! Font Awesome Pro 6.4.0 by @fontawesome - https://fontawesome.com License - https://fontawesome.com/license (Commercial License) Copyright 2023 Fonticons, Inc. --><path d="M248 16c-4.4 0-8 3.6-8 8v8H368V24c0-4.4-3.6-8-8-8H248zM224 32V24c0-13.3 10.7-24 24-24H360c13.3 0 24 10.7 24 24v8H510.4c53.9 0 97.6 43.7 97.6 97.6c0 16.8-13.6 30.4-30.4 30.4H408c-13.3 0-24 10.7-24 24V392c0 4.4-3.6 8-8 8H284.7c2.2 7.6 3.3 15.7 3.3 24c0 48.6-39.4 88-88 88s-88-39.4-88-88c0-10.5 1.8-20.6 5.2-30L22.9 324.8C8.5 314.3 0 297.5 0 279.7V88C0 57.1 25.1 32 56 32H224zM384 48H368 240 224 56C33.9 48 16 65.9 16 88V279.7c0 12.7 6.1 24.7 16.3 32.3l91.8 67.4C139.5 353.4 167.7 336 200 336c34.2 0 63.8 19.5 78.4 48H368V184c0-22.1 17.9-40 40-40H577.6c8 0 14.4-6.4 14.4-14.4C592 84.5 555.5 48 510.4 48H384zM200 496a72 72 0 1 0 0-144 72 72 0 1 0 0 144zm288 0a72 72 0 1 0 0-144 72 72 0 1 0 0 144zm0-160a88 88 0 1 1 0 176 88 88 0 1 1 0-176zM272 128H112c-8.8 0-16 7.2-16 16v64c0 8.8 7.2 16 16 16H272c8.8 0 16-7.2 16-16V144c0-8.8-7.2-16-16-16zM112 112H272c17.7 0 32 14.3 32 32v64c0 17.7-14.3 32-32 32H112c-17.7 0-32-14.3-32-32V144c0-17.7 14.3-32 32-32zm304 88c0-4.4 3.6-8 8-8h93.1c8.8 0 17.4 2.9 24.4 8.3l82.9 63.8c9.8 7.6 15.6 19.3 15.6 31.7V360c0 22.1-17.9 40-40 40h-8c-4.4 0-8-3.6-8-8s3.6-8 8-8h8c13.3 0 24-10.7 24-24V295.8c0-2.7-.4-5.3-1.3-7.8H424c-4.4 0-8-3.6-8-8s3.6-8 8-8H608.5l-76.7-59c-4.2-3.2-9.3-5-14.6-5H424c-4.4 0-8-3.6-8-8z"/></svg>

<svg xmlns="http://www.w3.org/2000/svg" viewBox="0 0 640 512"><path d="M272 112C289.7 112 304 126.3 304 144V208C304 225.7 289.7 240 272 240H112C94.33 240 80 225.7 80 208V144C80 126.3 94.33 112 112 112H272zM272 128H112C103.2 128 96 135.2 96 144V208C96 216.8 103.2 224 112 224H272C280.8 224 288 216.8 288 208V144C288 135.2 280.8 128 272 128zM224 32V24C224 10.75 234.7 0 248 0H360C373.3 0 384 10.75 384 24V32H510.4C564.3 32 608 75.7 608 129.6C608 146.4 594.4 160 577.6 160H408C394.7 160 384 170.7 384 184V392C384 396.4 380.4 400 376 400H284.7C286.8 407.6 288 415.7 288 424C288 472.6 248.6 512 200 512C151.4 512 112 472.6 112 424C112 413.5 113.8 403.4 117.2 394L22.88 324.8C8.499 314.3 0 297.5 0 279.7V88C0 57.07 25.07 32 56 32H224zM240 24V32H368V24C368 19.58 364.4 16 360 16H248C243.6 16 240 19.58 240 24zM56 48C33.91 48 16 65.91 16 88V279.7C16 292.4 22.07 304.4 32.35 311.9L124.2 379.3C139.5 353.4 167.7 336 200 336C234.2 336 263.8 355.5 278.4 384H368V184C368 161.9 385.9 144 408 144H577.6C585.6 144 592 137.6 592 129.6C592 84.53 555.5 48 510.4 48H56zM200 496C239.8 496 272 463.8 272 424C272 384.2 239.8 352 200 352C160.2 352 128 384.2 128 424C128 463.8 160.2 496 200 496zM400 424C400 375.4 439.4 336 488 336C536.6 336 576 375.4 576 424C576 472.6 536.6 512 488 512C439.4 512 400 472.6 400 424zM488 496C527.8 496 560 463.8 560 424C560 384.2 527.8 352 488 352C448.2 352 416 384.2 416 424C416 463.8 448.2 496 488 496zM416 200C416 195.6 419.6 192 424 192H517.1C525.9 192 534.5 194.9 541.5 200.3L624.4 264.1C634.2 271.6 640 283.3 640 295.8V360C640 382.1 622.1 400 600 400H592C587.6 400 584 396.4 584 392C584 387.6 587.6 384 592 384H600C613.3 384 624 373.3 624 360V295.8C624 293.1 623.6 290.5 622.7 288H424C419.6 288 416 284.4 416 280C416 275.6 419.6 272 424 272H608.5L531.8 212.1C527.6 209.7 522.4 208 517.1 208H424C419.6 208 416 204.4 416 200V200z"/></svg>
